X: 29
T: Seven Step
M: 2/4
L: 1/8
R: polka ~ 7-step
K: G Major
GG GG | F/G/A/F/ GD | BB BB | A/B/c/A/ BG ||
|: ee d>B | cc B>B | AA A>G | F/D/E/F/ G/A/ (3B/c/d/ :|
